X:46
T:Shropshire Lass (The)
S: 
M:4/4
L:1/8
Q:1/4=200
K:D
ABc|d2d2c2B2|A4A2BA|G2F2E2FG|AGFE DABc|d2d2c2B2|
e4e2f2|gfed cABc|d6:|:de|!f2f2e2d2|g3a gagf|
efef gfge|a4a2ag|f2e2d2ag|f2e2 d2f2|gfedcABc|d6:|

